X: 31871
T: Pay The Piper
R: jig
M: 6/8
K: Gmajor
|G2G GAB|d2d dge|dge dBA|BGE EDE|ABA ABd|c2A BAG|AGE DEG|AFA dcA|
G2G GAB|d2d dge|dge dBA|BGE EDE|ABA ABd|c2A BAG|AGE DEF|GAG GFG||
A2 A ABc|d2d dcB|ABA ABA|ABG FED|ABA ABc|ded def|gdB cAF|GAG GFG
A2 A ABc|d2d dcB|ABA ABA|ABG FED|ABA ABc|dfa gdB|cAG FAd|cAF G2D||

